X: 31054
T: Paddy Cronin's
R: slide
M: 12/8
K: Dmajor
|:E2 G F2 D E3 G2 A|BEE GFE BEE G2 E|
EFG F2 D E2 F G2 A|BEE GFE GFE D3:|
|:d3 c2 d e3 cBA|B2 E G2 E BEE GFE|
dcd cdd e2 d c2 A|BEE GFE GFE D3:|

